images/src/svg/suse.svg

<?xml version="1.0" encoding="UTF-8" standalone="no"?>
<svg
   version="1.1"
   x="0"
   y="0"
   width="210.59975"
   height="38.090038"
   viewBox="0 0 210.59975 38.090038"
   id="svg9"
   sodipodi:docname="suse.svg"
   xmlns:inkscape="http://www.inkscape.org/namespaces/inkscape"
   xmlns:sodipodi="http://sodipodi.sourceforge.net/DTD/sodipodi-0.dtd"
   xmlns="http://www.w3.org/2000/svg"
   xmlns:svg="http://www.w3.org/2000/svg">
  <defs
     id="defs13" />
  <sodipodi:namedview
     id="namedview11"
     pagecolor="#ffffff"
     bordercolor="#666666"
     borderopacity="1.0"
     inkscape:showpageshadow="2"
     inkscape:pageopacity="0.0"
     inkscape:pagecheckerboard="0"
     inkscape:deskcolor="#d1d1d1"
     showgrid="false" />
  <g
     id="Layer_1"
     transform="translate(-30.000256,-28.698704)">
    <g
       id="g6">
      <path
         d="m 238.462,55.726 h -13.555 c -1.045,0 -1.896,-0.85 -1.896,-1.896 v -6.848 h 13.084 c 1.124,0 2.036,-0.911 2.036,-2.036 0,-1.125 -0.912,-2.037 -2.036,-2.037 H 223.011 V 36.17 c 0,-1.046 0.851,-1.897 1.896,-1.897 h 13.555 c 1.18,0 2.138,-0.955 2.138,-2.136 0,-1.18 -0.958,-2.137 -2.138,-2.137 h -13.555 c -3.4,0 -6.169,2.767 -6.169,6.17 v 17.66 c 0,3.402 2.769,6.169 6.169,6.169 h 13.555 c 1.18,0 2.138,-0.955 2.138,-2.135 0,-1.181 -0.958,-2.138 -2.138,-2.138 m -39.86,-12.761 c -2.866,-0.515 -4.859,-1.123 -5.974,-1.833 -1.117,-0.709 -1.675,-1.666 -1.675,-2.873 0,-1.296 0.573,-2.361 1.719,-3.191 1.147,-0.828 2.761,-1.244 4.844,-1.244 2.112,0 3.801,0.406 5.069,1.222 0.682,0.439 1.303,1.022 1.863,1.752 0.826,1.068 2.385,1.21 3.389,0.306 0.947,-0.854 1.03,-2.318 0.178,-3.268 -1.028,-1.148 -2.197,-2.057 -3.507,-2.727 -1.947,-0.996 -4.293,-1.493 -7.037,-1.493 -2.354,0 -4.413,0.406 -6.177,1.221 -1.765,0.814 -3.117,1.916 -4.051,3.303 -0.936,1.389 -1.403,2.927 -1.403,4.617 0,1.599 0.368,2.956 1.109,4.072 0.738,1.118 1.924,2.052 3.553,2.806 1.628,0.755 3.815,1.388 6.561,1.901 2.746,0.514 4.669,1.101 5.77,1.765 1.102,0.664 1.652,1.538 1.652,2.623 0,1.359 -0.61,2.408 -1.834,3.147 -1.22,0.739 -2.903,1.109 -5.045,1.109 -2.263,0 -4.156,-0.422 -5.68,-1.268 -0.87,-0.483 -1.649,-1.123 -2.339,-1.92 -0.868,-1.007 -2.426,-1.031 -3.365,-0.091 l -0.008,0.01 c -0.86,0.858 -0.926,2.251 -0.115,3.155 2.582,2.882 6.434,4.322 11.552,4.322 2.353,0 4.428,-0.355 6.224,-1.064 1.795,-0.708 3.188,-1.726 4.184,-3.053 0.997,-1.328 1.495,-2.867 1.495,-4.618 0,-1.628 -0.362,-2.993 -1.086,-4.094 -0.725,-1.101 -1.878,-2.022 -3.463,-2.76 -1.583,-0.74 -3.718,-1.351 -6.403,-1.834 m -66.832,0.009 c -2.866,-0.515 -4.857,-1.124 -5.973,-1.833 -1.117,-0.709 -1.674,-1.667 -1.674,-2.875 0,-1.296 0.573,-2.36 1.719,-3.189 1.147,-0.829 2.761,-1.245 4.843,-1.245 2.11,0 3.801,0.408 5.068,1.222 0.684,0.439 1.305,1.023 1.865,1.752 0.824,1.07 2.384,1.211 3.388,0.307 0.948,-0.855 1.03,-2.319 0.178,-3.268 -1.028,-1.149 -2.198,-2.058 -3.507,-2.728 -1.946,-0.995 -4.293,-1.493 -7.038,-1.493 -2.353,0 -4.412,0.407 -6.176,1.221 -1.766,0.814 -3.116,1.917 -4.051,3.305 -0.935,1.387 -1.403,2.925 -1.403,4.615 0,1.599 0.368,2.958 1.109,4.072 0.739,1.117 1.924,2.054 3.552,2.807 1.629,0.755 3.817,1.388 6.562,1.901 2.745,0.513 4.668,1.102 5.77,1.765 1.101,0.663 1.652,1.538 1.652,2.624 0,1.358 -0.611,2.406 -1.832,3.145 -1.223,0.74 -2.905,1.109 -5.046,1.109 -2.264,0 -4.158,-0.422 -5.681,-1.268 -0.869,-0.482 -1.649,-1.122 -2.337,-1.919 -0.868,-1.008 -2.427,-1.031 -3.368,-0.09 l -0.007,0.008 c -0.86,0.858 -0.926,2.251 -0.115,3.155 2.582,2.883 6.433,4.322 11.553,4.322 2.353,0 4.427,-0.354 6.222,-1.063 1.795,-0.708 3.19,-1.728 4.186,-3.055 0.996,-1.326 1.493,-2.867 1.493,-4.616 0,-1.629 -0.362,-2.993 -1.086,-4.095 -0.725,-1.102 -1.877,-2.021 -3.463,-2.76 -1.583,-0.74 -3.717,-1.35 -6.403,-1.833 m 44.573,-10.915 v 16.428 c 0,3.921 -1.041,6.885 -3.122,8.892 -2.082,2.007 -5.114,3.009 -9.095,3.009 -3.984,0 -7.016,-1.002 -9.098,-3.009 -2.081,-2.007 -3.121,-4.971 -3.121,-8.892 V 32.059 c 0,-1.35 1.092,-2.443 2.442,-2.443 1.349,0 2.445,1.093 2.445,2.443 v 15.839 c 0,2.837 0.595,4.926 1.787,6.268 1.192,1.342 3.039,2.014 5.545,2.014 2.504,0 4.35,-0.672 5.542,-2.014 1.192,-1.342 1.788,-3.431 1.788,-6.268 V 32.059 c 0,-1.35 1.095,-2.443 2.443,-2.443 1.35,0 2.444,1.093 2.444,2.443"
         fill="#0c322c"
         id="path2" />
      <path
         d="m 101.408,42.16 c -0.405,0.269 -0.947,0.269 -1.353,0 -0.664,-0.441 -0.728,-1.363 -0.192,-1.896 0.476,-0.493 1.261,-0.493 1.737,-0.001 0.535,0.534 0.47,1.456 -0.192,1.897 m 1.936,-2.687 c 0.772,3.284 -2.18,6.237 -5.464,5.465 -1.672,-0.392 -2.999,-1.719 -3.392,-3.39 -0.77,-3.282 2.181,-6.233 5.464,-5.464 1.671,0.391 2.999,1.717 3.392,3.389 M 81.232,57.135 c 0.375,0.539 0.687,1.06 0.862,1.581 0.124,0.37 0.283,0.858 0.648,1.054 0.02,0.011 0.038,0.021 0.06,0.027 0.67,0.244 2.393,0.203 2.393,0.203 h 3.169 c 0.271,0.004 2.652,-0.003 2.592,-0.269 -0.287,-1.273 -1.759,-1.501 -2.88,-2.167 -1.033,-0.616 -2.013,-1.314 -2.457,-2.515 -0.232,-0.62 -0.095,-2.05 0.304,-2.571 0.291,-0.377 0.72,-0.627 1.181,-0.728 0.511,-0.109 1.041,-0.015 1.552,0.037 0.63,0.064 1.252,0.178 1.88,0.256 1.212,0.158 2.436,0.221 3.658,0.188 2.017,-0.056 4.039,-0.377 5.951,-1.029 1.335,-0.448 2.65,-1.054 3.785,-1.897 1.29,-0.959 0.951,-0.869 -0.357,-0.735 -1.566,0.16 -3.146,0.184 -4.717,0.091 -1.466,-0.085 -2.912,-0.258 -4.238,-0.939 -1.044,-0.539 -1.941,-1.079 -2.769,-1.914 -0.124,-0.126 -0.201,-0.494 0.026,-0.729 0.22,-0.228 0.686,-0.096 0.829,0.026 1.444,1.207 3.598,2.201 5.828,2.309 1.206,0.06 2.379,0.082 3.586,0.03 0.603,-0.028 1.513,-0.024 2.118,-0.03 0.312,-0.004 1.163,0.086 1.322,-0.245 0.048,-0.096 0.044,-0.207 0.04,-0.315 -0.177,-4.826 -0.534,-10.269 -5.584,-12.576 -3.768,-1.723 -9.417,-4.392 -11.803,-5.499 -0.553,-0.263 -1.2,0.153 -1.2,0.769 0,1.612 0.082,3.928 0.083,6.036 -1.143,-1.164 -3.068,-1.899 -4.535,-2.573 -1.666,-0.764 -3.386,-1.412 -5.136,-1.957 -3.523,-1.091 -7.169,-1.763 -10.836,-2.127 -4.159,-0.415 -8.388,-0.216 -12.483,0.63 -6.744,1.398 -13.373,4.641 -18.405,9.384 -3.089,2.91 -5.513,7.047 -5.677,11.246 -0.234,5.943 1.431,9.134 4.491,12.423 4.88,5.242 15.383,5.976 19.637,-0.24 1.914,-2.798 2.329,-6.593 0.94,-9.686 -1.389,-3.091 -4.582,-5.325 -7.967,-5.439 -2.627,-0.087 -5.426,1.249 -6.433,3.678 -0.768,1.855 -0.331,4.147 1.068,5.587 0.545,0.562 1.283,1.022 2.089,0.842 0.475,-0.106 0.872,-0.463 0.944,-0.945 0.106,-0.711 -0.516,-1.172 -0.899,-1.718 -0.691,-0.985 -0.551,-2.464 0.314,-3.301 0.73,-0.707 1.811,-0.916 2.827,-0.913 0.946,0.002 1.913,0.171 2.729,0.648 1.147,0.675 1.909,1.911 2.173,3.217 0.787,3.903 -2.386,7.074 -6.688,7.323 -2.201,0.13 -4.441,-0.448 -6.159,-1.831 -4.351,-3.5 -5.417,-10.654 -0.444,-14.473 4.721,-3.625 10.681,-2.691 14.195,-0.807 2.812,1.507 4.908,3.973 6.496,6.699 0.797,1.371 1.476,2.804 2.106,4.259 0.606,1.399 1.173,2.809 2.386,3.834 0.803,0.68 1.794,0.656 2.846,0.656 h 6.005 c 0.816,0 0.617,-0.544 0.265,-0.904 -0.796,-0.814 -1.94,-0.998 -2.999,-1.289 -2.421,-0.666 -2.174,-3.871 -1.504,-3.871 2.164,0 2.232,0.065 4.128,0.041 2.736,-0.038 3.564,-0.197 5.704,0.594 1.144,0.424 2.243,1.542 2.96,2.564"
         fill="#30ba78"
         id="path4" />
    </g>
  </g>
</svg>

<?xml version="1.0" encoding="UTF-8"?>
<!DOCTYPE svg PUBLIC "-//W3C//DTD SVG 1.1//EN" "http://www.w3.org/Graphics/SVG/1.1/DTD/svg11.dtd">
<svg version="1.1" xmlns="http://www.w3.org/2000/svg" xmlns:xlink="http://www.w3.org/1999/xlink" x="0" y="0" width="270" height="90" viewBox="0, 0, 270, 90">
  <g id="Layer_1">
    <g>
      <path d="M238.462,55.726 L224.907,55.726 C223.862,55.726 223.011,54.876 223.011,53.83 L223.011,46.982 L236.095,46.982 C237.219,46.982 238.131,46.071 238.131,44.946 C238.131,43.821 237.219,42.909 236.095,42.909 L223.011,42.909 L223.011,36.17 C223.011,35.124 223.862,34.273 224.907,34.273 L238.462,34.273 C239.642,34.273 240.6,33.318 240.6,32.137 C240.6,30.957 239.642,30 238.462,30 L224.907,30 C221.507,30 218.738,32.767 218.738,36.17 L218.738,53.83 C218.738,57.232 221.507,59.999 224.907,59.999 L238.462,59.999 C239.642,59.999 240.6,59.044 240.6,57.864 C240.6,56.683 239.642,55.726 238.462,55.726 M198.602,42.965 C195.736,42.45 193.743,41.842 192.628,41.132 C191.511,40.423 190.953,39.466 190.953,38.259 C190.953,36.963 191.526,35.898 192.672,35.068 C193.819,34.24 195.433,33.824 197.516,33.824 C199.628,33.824 201.317,34.23 202.585,35.046 C203.267,35.485 203.888,36.068 204.448,36.798 C205.274,37.866 206.833,38.008 207.837,37.104 C208.784,36.25 208.867,34.786 208.015,33.836 C206.987,32.688 205.818,31.779 204.508,31.109 C202.561,30.113 200.215,29.616 197.471,29.616 C195.117,29.616 193.058,30.022 191.294,30.837 C189.529,31.651 188.177,32.753 187.243,34.14 C186.307,35.529 185.84,37.067 185.84,38.757 C185.84,40.356 186.208,41.713 186.949,42.829 C187.687,43.947 188.873,44.881 190.502,45.635 C192.13,46.39 194.317,47.023 197.063,47.536 C199.809,48.05 201.732,48.637 202.833,49.301 C203.935,49.965 204.485,50.839 204.485,51.924 C204.485,53.283 203.875,54.332 202.651,55.071 C201.431,55.81 199.748,56.18 197.606,56.18 C195.343,56.18 193.45,55.758 191.926,54.912 C191.056,54.429 190.277,53.789 189.587,52.992 C188.719,51.985 187.161,51.961 186.222,52.901 L186.214,52.911 C185.354,53.769 185.288,55.162 186.099,56.066 C188.681,58.948 192.533,60.388 197.651,60.388 C200.004,60.388 202.079,60.033 203.875,59.324 C205.67,58.616 207.063,57.598 208.059,56.271 C209.056,54.943 209.554,53.404 209.554,51.653 C209.554,50.025 209.192,48.66 208.468,47.559 C207.743,46.458 206.59,45.537 205.005,44.799 C203.422,44.059 201.287,43.448 198.602,42.965 M131.77,42.974 C128.904,42.459 126.913,41.85 125.797,41.141 C124.68,40.432 124.123,39.474 124.123,38.266 C124.123,36.97 124.696,35.906 125.842,35.077 C126.989,34.248 128.603,33.832 130.685,33.832 C132.795,33.832 134.486,34.24 135.753,35.054 C136.437,35.493 137.058,36.077 137.618,36.806 C138.442,37.876 140.002,38.017 141.006,37.113 C141.954,36.258 142.036,34.794 141.184,33.845 C140.156,32.696 138.986,31.787 137.677,31.117 C135.731,30.122 133.384,29.624 130.639,29.624 C128.286,29.624 126.227,30.031 124.463,30.845 C122.697,31.659 121.347,32.762 120.412,34.15 C119.477,35.537 119.009,37.075 119.009,38.765 C119.009,40.364 119.377,41.723 120.118,42.837 C120.857,43.954 122.042,44.891 123.67,45.644 C125.299,46.399 127.487,47.032 130.232,47.545 C132.977,48.058 134.9,48.647 136.002,49.31 C137.103,49.973 137.654,50.848 137.654,51.934 C137.654,53.292 137.043,54.34 135.822,55.079 C134.599,55.819 132.917,56.188 130.776,56.188 C128.512,56.188 126.618,55.766 125.095,54.92 C124.226,54.438 123.446,53.798 122.758,53.001 C121.89,51.993 120.331,51.97 119.39,52.911 L119.383,52.919 C118.523,53.777 118.457,55.17 119.268,56.074 C121.85,58.957 125.701,60.396 130.821,60.396 C133.174,60.396 135.248,60.042 137.043,59.333 C138.838,58.625 140.233,57.605 141.229,56.278 C142.225,54.952 142.722,53.411 142.722,51.662 C142.722,50.033 142.36,48.669 141.636,47.567 C140.911,46.465 139.759,45.546 138.173,44.807 C136.59,44.067 134.456,43.457 131.77,42.974 M176.343,32.059 L176.343,48.487 C176.343,52.408 175.302,55.372 173.221,57.379 C171.139,59.386 168.107,60.388 164.126,60.388 C160.142,60.388 157.11,59.386 155.028,57.379 C152.947,55.372 151.907,52.408 151.907,48.487 L151.907,32.059 C151.907,30.709 152.999,29.616 154.349,29.616 C155.698,29.616 156.794,30.709 156.794,32.059 L156.794,47.898 C156.794,50.735 157.389,52.824 158.581,54.166 C159.773,55.508 161.62,56.18 164.126,56.18 C166.63,56.18 168.476,55.508 169.668,54.166 C170.86,52.824 171.456,50.735 171.456,47.898 L171.456,32.059 C171.456,30.709 172.551,29.616 173.899,29.616 C175.249,29.616 176.343,30.709 176.343,32.059" fill="#0C322C"/>
      <path d="M101.408,42.16 C101.003,42.429 100.461,42.429 100.055,42.16 C99.391,41.719 99.327,40.797 99.863,40.264 C100.339,39.771 101.124,39.771 101.6,40.263 C102.135,40.797 102.07,41.719 101.408,42.16 M103.344,39.473 C104.116,42.757 101.164,45.71 97.88,44.938 C96.208,44.546 94.881,43.219 94.488,41.548 C93.718,38.266 96.669,35.315 99.952,36.084 C101.623,36.475 102.951,37.801 103.344,39.473 M81.232,57.135 C81.607,57.674 81.919,58.195 82.094,58.716 C82.218,59.086 82.377,59.574 82.742,59.77 C82.762,59.781 82.78,59.791 82.802,59.797 C83.472,60.041 85.195,60 85.195,60 L88.364,60 C88.635,60.004 91.016,59.997 90.956,59.731 C90.669,58.458 89.197,58.23 88.076,57.564 C87.043,56.948 86.063,56.25 85.619,55.049 C85.387,54.429 85.524,52.999 85.923,52.478 C86.214,52.101 86.643,51.851 87.104,51.75 C87.615,51.641 88.145,51.735 88.656,51.787 C89.286,51.851 89.908,51.965 90.536,52.043 C91.748,52.201 92.972,52.264 94.194,52.231 C96.211,52.175 98.233,51.854 100.145,51.202 C101.48,50.754 102.795,50.148 103.93,49.305 C105.22,48.346 104.881,48.436 103.573,48.57 C102.007,48.73 100.427,48.754 98.856,48.661 C97.39,48.576 95.944,48.403 94.618,47.722 C93.574,47.183 92.677,46.643 91.849,45.808 C91.725,45.682 91.648,45.314 91.875,45.079 C92.095,44.851 92.561,44.983 92.704,45.105 C94.148,46.312 96.302,47.306 98.532,47.414 C99.738,47.474 100.911,47.496 102.118,47.444 C102.721,47.416 103.631,47.42 104.236,47.414 C104.548,47.41 105.399,47.5 105.558,47.169 C105.606,47.073 105.602,46.962 105.598,46.854 C105.421,42.028 105.064,36.585 100.014,34.278 C96.246,32.555 90.597,29.886 88.211,28.779 C87.658,28.516 87.011,28.932 87.011,29.548 C87.011,31.16 87.093,33.476 87.094,35.584 C85.951,34.42 84.026,33.685 82.559,33.011 C80.893,32.247 79.173,31.599 77.423,31.054 C73.9,29.963 70.254,29.291 66.587,28.927 C62.428,28.512 58.199,28.711 54.104,29.557 C47.36,30.955 40.731,34.198 35.699,38.941 C32.61,41.851 30.186,45.988 30.022,50.187 C29.788,56.13 31.453,59.321 34.513,62.61 C39.393,67.852 49.896,68.586 54.15,62.37 C56.064,59.572 56.479,55.777 55.09,52.684 C53.701,49.593 50.508,47.359 47.123,47.245 C44.496,47.158 41.697,48.494 40.69,50.923 C39.922,52.778 40.359,55.07 41.758,56.51 C42.303,57.072 43.041,57.532 43.847,57.352 C44.322,57.246 44.719,56.889 44.791,56.407 C44.897,55.696 44.275,55.235 43.892,54.689 C43.201,53.704 43.341,52.225 44.206,51.388 C44.936,50.681 46.017,50.472 47.033,50.475 C47.979,50.477 48.946,50.646 49.762,51.123 C50.909,51.798 51.671,53.034 51.935,54.34 C52.722,58.243 49.549,61.414 45.247,61.663 C43.046,61.793 40.806,61.215 39.088,59.832 C34.737,56.332 33.671,49.178 38.644,45.359 C43.365,41.734 49.325,42.668 52.839,44.552 C55.651,46.059 57.747,48.525 59.335,51.251 C60.132,52.622 60.811,54.055 61.441,55.51 C62.047,56.909 62.614,58.319 63.827,59.344 C64.63,60.024 65.621,60 66.673,60 L72.678,60 C73.494,60 73.295,59.456 72.943,59.096 C72.147,58.282 71.003,58.098 69.944,57.807 C67.523,57.141 67.77,53.936 68.44,53.936 C70.604,53.936 70.672,54.001 72.568,53.977 C75.304,53.939 76.132,53.78 78.272,54.571 C79.416,54.995 80.515,56.113 81.232,57.135" fill="#30BA78"/>
    </g>
  </g>
</svg>
